sources/design/Outline/₹.svg

<svg:svg xmlns:cc="http://creativecommons.org/ns#" xmlns:dc="http://purl.org/dc/elements/1.1/" xmlns:inkscape="http://www.inkscape.org/namespaces/inkscape" xmlns:rdf="http://www.w3.org/1999/02/22-rdf-syntax-ns#" xmlns:sodipodi="http://sodipodi.sourceforge.net/DTD/sodipodi-0.dtd" xmlns:svg="http://www.w3.org/2000/svg" xml:space="preserve" width="1000" height="1000" version="1.1" style="clip-rule:evenodd;fill-rule:evenodd;image-rendering:optimizeQuality;shape-rendering:geometricPrecision;text-rendering:geometricPrecision" viewBox="0 0 1000 1000" id="svg10" sodipodi:docname="₹.svg" inkscape:version="1.0.2 (e86c870879, 2021-01-15)"><svg:metadata id="metadata14"><rdf:RDF><cc:Work rdf:about=""><dc:format>image/svg+xml</dc:format><dc:type rdf:resource="http://purl.org/dc/dcmitype/StillImage" /><dc:title /></cc:Work></rdf:RDF></svg:metadata><sodipodi:namedview pagecolor="#ffffff" bordercolor="#666666" borderopacity="1" objecttolerance="10" gridtolerance="10" guidetolerance="10" inkscape:pageopacity="0" inkscape:pageshadow="2" inkscape:window-width="1920" inkscape:window-height="1127" id="namedview12" showgrid="false" inkscape:zoom="1.6978177" inkscape:cx="108.36355" inkscape:cy="349.23" inkscape:window-x="0" inkscape:window-y="0" inkscape:window-maximized="1" inkscape:current-layer="svg10" showguides="true" inkscape:guide-bbox="true" inkscape:document-rotation="0" inkscape:pagecheckerboard="0"><sodipodi:guide position="0,1000" orientation="0,1" id="guide16" inkscape:label="" inkscape:locked="true" inkscape:color="rgb(0,0,255)" /><sodipodi:guide position="1763.3122,2036.1693" orientation="1000,0" id="guide18" /><sodipodi:guide position="0,200" orientation="0,1" id="guide20" inkscape:label="base" inkscape:locked="true" inkscape:color="rgb(0,0,255)" /><inkscape:grid type="xygrid" id="grid24" originx="-473.37552" originy="-489.69235" /><sodipodi:guide position="0,0" orientation="0,1" id="guide34" inkscape:label="bottom" inkscape:locked="true" inkscape:color="rgb(0,0,255)" /><sodipodi:guide position="225.05109,1693.3186" orientation="0,1" id="guide44" inkscape:label="" inkscape:locked="false" inkscape:color="rgb(0,0,255)" /><sodipodi:guide position="0,900" orientation="0,1" id="guide46" inkscape:label="" inkscape:locked="true" inkscape:color="rgb(0,0,255)" /><sodipodi:guide position="458.94695,548.44916" orientation="1,0" id="guide841" inkscape:label="width" />    </sodipodi:namedview>
 <svg:defs id="defs4"><inkscape:path-effect effect="fillet_chamfer" id="path-effect854" is_visible="true" lpeversion="1" satellites_param="F,0,0,1,0,0,0,1 @ F,0,0,1,0,0,0,1 @ F,0,0,1,0,0,0,1 @ F,0,0,1,0,0,0,1 @ F,0,0,1,0,0,0,1 @ F,0,0,1,0,0,0,1 @ F,0,0,1,0,0,0,1 @ F,0,0,1,0,0,0,1 @ F,0,0,1,0,0,0,1 @ F,0,0,1,0,0,0,1 @ F,0,0,1,0,0,0,1 @ F,0,1,1,0,12.166887,0,1 @ F,0,1,1,0,12.166887,0,1 @ F,0,0,1,0,0,0,1 @ F,0,1,1,0,12.166887,0,1 @ F,0,1,1,0,12.166887,0,1 @ F,0,0,1,0,0,0,1 @ F,0,0,1,0,0,0,1 @ F,0,0,1,0,0,0,1 @ F,0,0,1,0,0,0,1 @ F,0,0,1,0,0,0,1 | F,0,1,1,0,12.166887,0,1 @ F,0,1,1,0,12.166887,0,1 @ F,0,1,1,0,12.166887,0,1 @ F,0,1,1,0,12.166887,0,1 | F,0,1,1,0,12.166887,0,1 @ F,0,1,1,0,12.166887,0,1 @ F,0,1,1,0,12.166887,0,1 @ F,0,1,1,0,12.166887,0,1" unit="px" method="auto" mode="F" radius="0" chamfer_steps="1" flexible="false" use_knot_distance="true" apply_no_radius="true" apply_with_radius="true" only_selected="false" hide_knots="false" /><inkscape:path-effect effect="spiro" id="path-effect852" is_visible="true" lpeversion="1" /><inkscape:path-effect effect="fillet_chamfer" id="path-effect850" is_visible="true" lpeversion="1" satellites_param="F,0,0,1,0,0,0,1 @ F,0,0,1,0,0,0,1 @ F,0,0,1,0,0,0,1 @ F,0,0,1,0,0,0,1 @ F,0,0,1,0,0,0,1 @ F,0,0,1,0,0,0,1 @ F,0,0,1,0,0,0,1 @ F,0,0,1,0,0,0,1 @ F,0,0,1,0,0,0,1 @ F,0,1,1,0,31.843498,0,1 @ F,0,1,1,0,31.843498,0,1 @ F,0,0,1,0,0,0,1 @ F,0,1,1,0,31.843498,0,1 @ F,0,1,1,0,31.843498,0,1 @ F,0,0,1,0,0,0,1 @ F,0,0,1,0,0,0,1 @ F,0,0,1,0,0,0,1 @ F,0,0,1,0,0,0,1 @ F,0,0,1,0,0,0,1 | F,0,1,1,0,31.843498,0,1 @ F,0,1,1,0,31.843498,0,1 @ F,0,1,1,0,31.843498,0,1 @ F,0,1,1,0,31.843498,0,1 | F,0,1,1,0,31.843498,0,1 @ F,0,1,1,0,31.843498,0,1 @ F,0,1,1,0,31.843498,0,1 @ F,0,1,1,0,31.843498,0,1" unit="px" method="auto" mode="F" radius="0" chamfer_steps="1" flexible="false" use_knot_distance="true" apply_no_radius="true" apply_with_radius="true" only_selected="true" hide_knots="false" /><inkscape:path-effect effect="spiro" id="path-effect872" is_visible="true" lpeversion="1" /><inkscape:path-effect effect="spiro" id="path-effect868" is_visible="true" lpeversion="1" /><inkscape:path-effect effect="spiro" id="path-effect849" is_visible="true" lpeversion="1" /><inkscape:path-effect effect="spiro" id="path-effect851" is_visible="true" lpeversion="1" />
  <svg:style type="text/css" id="style2">
   
    .fil0 {fill:#EF7F1A;fill-rule:nonzero}
   
  </svg:style>
 <inkscape:path-effect effect="spiro" id="path-effect1214" is_visible="true" lpeversion="1" /><inkscape:path-effect effect="spiro" id="path-effect1195" is_visible="true" lpeversion="1" /><inkscape:path-effect effect="spiro" id="path-effect992" is_visible="true" lpeversion="1" /><inkscape:path-effect effect="spiro" id="path-effect1060" is_visible="true" lpeversion="1" /><inkscape:path-effect effect="spiro" id="path-effect1047" is_visible="true" lpeversion="1" /><inkscape:path-effect effect="spiro" id="path-effect1085" is_visible="true" lpeversion="1" /><inkscape:path-effect effect="spiro" id="path-effect1286" is_visible="true" lpeversion="1" /></svg:defs>
 
<svg:g id="path870"><svg:path style="color:#000000;clip-rule:nonzero;fill:#1a5fb4;fill-rule:nonzero;stroke-linecap:round;stroke-linejoin:round;-inkscape-stroke:none;paint-order:fill stroke markers;shape-rendering:auto" d="M 39.023437,70.0 C 17.656996,70.0 -1.0418865,85.638619 -4.8222656,106.66797 L -17.083984,174.87695 C -21.409704,198.9399 -1.9310411000000016,222.18407 22.517578,222.13477 L 157.15233999999998,221.86328 C 173.23479999999998,235.00184000000002 188.06360999999998,249.26591 200.89648,264.83398 L 37.685547,264.83398 C 16.319106,264.83398 -2.3797770999999983,280.47065 -6.160156200000003,301.5 L -18.421875000000004,369.70898 C -22.747595000000004,393.77193 -3.268931700000003,417.01805 21.179686999999998,416.96875 L 212.37305,416.58203 C 204.54135,427.36217999999997 195.30301,437.50577999999996 184.79297,446.63477 C 150.11451,476.75638 104.798,495.38591 58.898437,498.56641 C 37.012294,500.08295000000004 17.514421,523.32305 21.132812,545.80273 L 32.216797,614.66016 C 35.556968,635.4113600000001 45.608008,646.91715 64.550781,654.1113300000001 C 111.16678999999999,671.8153800000001 154.60394,698.16934 191.79687,731.3593700000001 C 216.76018000000002,753.6359900000001 238.99942000000001,779.0255700000001 257.80859,806.7050800000002 C 269.68577999999997,824.1835000000002 285.62374,831.3002700000002 307.04296999999997,827.0898400000002 L 420.92968999999994,804.7031200000002 C 430.6609199999999,802.7902300000003 445.20111999999995,795.7554400000002 449.83788999999996,779.3457000000002 C 454.47466,762.9359600000003 445.68859,749.2221900000002 438.33984,742.5195300000001 C 394.85413,702.8569600000002 349.15736,665.6238600000001 301.52734,631.0468700000001 C 280.05186,615.4567600000001 257.97146,600.4175600000001 235.33202999999997,586.0781200000001 C 254.75223999999997,576.0077000000001 273.52124999999995,564.2027700000001 290.93163999999996,549.8476600000001 C 320.50514999999996,525.4638700000002 345.16702999999995,494.7076500000001 361.52734,459.2968700000001 C 367.90164,445.5001400000001 372.92035999999996,431.0618300000001 376.5293,416.2500000000001 L 418.38086,416.1660000000001 C 439.36469,416.1237000000001 457.86316999999997,401.2509100000001 462.41015999999996,380.7656000000001 L 477.4043,313.2128700000001 C 482.77,289.03901000000013 463.35008999999997,264.8339600000001 438.58788999999996,264.8339600000001 L 361.11913999999996,264.8339600000001 C 354.58663999999993,249.7420800000001 347.07665999999995,235.2621600000001 338.96093999999994,221.4960700000001 L 419.71874999999994,221.33396000000008 C 440.70257999999995,221.29166000000006 459.2010599999999,206.41692000000006 463.7480499999999,185.93162000000007 L 478.74218999999994,118.37889000000007 C 484.10789,94.205045 464.68798,70.0 439.92578,70.0 L 39.023437,70.0 M 51.945312,130.0 L 118.16406,130.0 L 110.11914,133.51953 A 30.003,30.003 0.0 0,0 92.757812,161.99219 L 46.175781,162.08589 L 51.945312,130.0 M 272.29687,130.0 L 414.70312,130.0 L 407.74219,161.35742 L 298.35156,161.57811999999998 C 290.03276,150.75643 281.32487,140.238 272.29687,130.0 M 212.78906,154.09766 C 215.23372,156.66182999999998 217.7812,159.12496 220.17578,161.73632999999998 L 195.21094,161.78713 L 212.78906,154.09766 M 267.65234,221.64061999999998 C 271.68689,227.50537999999997 275.78076999999996,233.33076 279.58203,239.34766 C 284.88878,247.74754 289.86643999999995,256.25694 294.4668,264.83398 L 273.62109,264.83398 C 266.09752,251.43777 257.33625,239.01809 248.07617,227.68945 C 246.38851,225.62479 244.56568,223.70862 242.83398,221.69141 L 267.65234,221.64061999999998 M 50.607422,324.83398 L 233.72461,324.83398 C 234.96852,329.65301999999997 235.95757,334.46823 236.41602,339.25391 C 236.95728,344.90404 236.8758,350.70081000000005 236.33982,356.53516 L 44.83787100000001,356.91992000000005 L 50.607422,324.83398 M 294.86719,324.83398 L 318.25391,324.83398 C 320.25415000000004,333.12358 321.75565,341.42328 322.46680000000003,349.71484 C 322.65594000000004,351.92017999999996 322.70819000000006,354.14345 322.80078000000003,356.36132999999995 L 296.57422,356.41402999999997 C 296.98655,348.85497 296.87852000000004,341.21549999999996 296.14258,333.53317 C 295.85949,330.57811 295.31245,327.72636 294.86719,324.83394999999996 L 294.86719,324.83398 M 379.63477,324.83398 L 413.36523,324.83398 L 406.4043,356.19141 L 382.8418,356.24021000000005 C 382.72044999999997,352.35785000000004 382.57934,348.47330000000005 382.24609,344.58787000000007 C 381.67262,337.90154000000007 380.77558999999997,331.32333000000006 379.63477,324.83396000000005 L 379.63477,324.83398 M 314.04687,416.37694999999997 C 312.02266000000003,422.40772 309.73022000000003,428.35448999999994 307.06055000000003,434.13280999999995 C 294.80811000000006,460.65236999999996 275.82433000000003,484.53727999999995 252.76172000000003,503.55272999999994 C 229.46987000000001,522.7571999999999 201.63039000000003,537.3450899999999 171.63281,548.95508 C 164.79944,545.36357 157.91071,541.85555 150.95117,538.4570299999999 C 150.54674,538.2595399999999 150.13134,538.08544 149.72655999999998,537.8886699999999 C 176.70853999999997,526.67143 201.93948999999998,511.21743999999995 224.14061999999998,491.9335899999999 C 245.70910999999998,473.1992699999999 264.99958,450.47277999999994 278.43944999999997,423.4667999999999 C 279.58462,421.16570999999993 280.61733,418.79707999999994 281.66992,416.4414099999999 L 314.04687,416.37694999999997 M 90.574219,599.66797 C 90.623129,599.72407 90.632099,599.9042999999999 90.667969,599.97656 C 90.652209,599.97056 90.636859,599.96326 90.621099,599.95706 L 90.574219,599.66797 M 166.34766,614.5 C 200.63054,633.98814 233.83677,656.04993 266.2793,679.6015600000001 C 299.16844,703.4774100000001 331.05967,728.72256 361.93555,755.1523400000001 L 302.91602,766.7539100000001 C 282.29993,737.4620700000002 258.48043,710.4507900000001 231.74609,686.5937500000001 C 203.73746,661.5995600000001 172.70601,640.1218100000001 139.60352,622.5117200000001 C 144.33396,621.18321 149.08758,619.9397700000001 153.78906,618.5117200000001 C 157.96924,617.24201 162.15980000000002,615.8654100000001 166.34766000000002,614.5000000000001 L 166.34766,614.5 M 304.57812,769.04687 C 305.34106,769.9401 306.17793,771.13459 307.43359000000004,772.98242 C 306.52237,771.64147 305.50316000000004,770.3782100000001 304.57812,769.04687" id="path2773" /></svg:g></svg:svg>

<svg:svg xmlns:cc="http://creativecommons.org/ns#" xmlns:dc="http://purl.org/dc/elements/1.1/" xmlns:inkscape="http://www.inkscape.org/namespaces/inkscape" xmlns:rdf="http://www.w3.org/1999/02/22-rdf-syntax-ns#" xmlns:sodipodi="http://sodipodi.sourceforge.net/DTD/sodipodi-0.dtd" xmlns:svg="http://www.w3.org/2000/svg" xml:space="preserve" width="1000" height="1000" version="1.1" style="clip-rule:evenodd;fill-rule:evenodd;image-rendering:optimizeQuality;shape-rendering:geometricPrecision;text-rendering:geometricPrecision" viewBox="0 0 1000 1000" id="svg10" sodipodi:docname="₹.svg" inkscape:version="1.0.2 (e86c870879, 2021-01-15)"><svg:metadata id="metadata14"><rdf:RDF><cc:Work rdf:about=""><dc:format>image/svg+xml</dc:format><dc:type rdf:resource="http://purl.org/dc/dcmitype/StillImage" /><dc:title /></cc:Work></rdf:RDF></svg:metadata><sodipodi:namedview pagecolor="#ffffff" bordercolor="#666666" borderopacity="1" objecttolerance="10" gridtolerance="10" guidetolerance="10" inkscape:pageopacity="0" inkscape:pageshadow="2" inkscape:window-width="1920" inkscape:window-height="1127" id="namedview12" showgrid="false" inkscape:zoom="1.6978177" inkscape:cx="108.36355" inkscape:cy="349.23" inkscape:window-x="0" inkscape:window-y="0" inkscape:window-maximized="1" inkscape:current-layer="svg10" showguides="true" inkscape:guide-bbox="true" inkscape:document-rotation="0" inkscape:pagecheckerboard="0"><sodipodi:guide position="0,1000" orientation="0,1" id="guide16" inkscape:label="" inkscape:locked="true" inkscape:color="rgb(0,0,255)" /><sodipodi:guide position="1763.3122,2036.1693" orientation="1000,0" id="guide18" /><sodipodi:guide position="0,200" orientation="0,1" id="guide20" inkscape:label="base" inkscape:locked="true" inkscape:color="rgb(0,0,255)" /><inkscape:grid type="xygrid" id="grid24" originx="-473.37552" originy="-489.69235" /><sodipodi:guide position="0,0" orientation="0,1" id="guide34" inkscape:label="bottom" inkscape:locked="true" inkscape:color="rgb(0,0,255)" /><sodipodi:guide position="225.05109,1693.3186" orientation="0,1" id="guide44" inkscape:label="" inkscape:locked="false" inkscape:color="rgb(0,0,255)" /><sodipodi:guide position="0,900" orientation="0,1" id="guide46" inkscape:label="" inkscape:locked="true" inkscape:color="rgb(0,0,255)" /><sodipodi:guide position="458.94695,548.44916" orientation="1,0" id="guide841" inkscape:label="width" />    </sodipodi:namedview>
 <svg:defs id="defs4"><inkscape:path-effect effect="fillet_chamfer" id="path-effect854" is_visible="true" lpeversion="1" satellites_param="F,0,0,1,0,0,0,1 @ F,0,0,1,0,0,0,1 @ F,0,0,1,0,0,0,1 @ F,0,0,1,0,0,0,1 @ F,0,0,1,0,0,0,1 @ F,0,0,1,0,0,0,1 @ F,0,0,1,0,0,0,1 @ F,0,0,1,0,0,0,1 @ F,0,0,1,0,0,0,1 @ F,0,0,1,0,0,0,1 @ F,0,0,1,0,0,0,1 @ F,0,1,1,0,12.166887,0,1 @ F,0,1,1,0,12.166887,0,1 @ F,0,0,1,0,0,0,1 @ F,0,1,1,0,12.166887,0,1 @ F,0,1,1,0,12.166887,0,1 @ F,0,0,1,0,0,0,1 @ F,0,0,1,0,0,0,1 @ F,0,0,1,0,0,0,1 @ F,0,0,1,0,0,0,1 @ F,0,0,1,0,0,0,1 | F,0,1,1,0,12.166887,0,1 @ F,0,1,1,0,12.166887,0,1 @ F,0,1,1,0,12.166887,0,1 @ F,0,1,1,0,12.166887,0,1 | F,0,1,1,0,12.166887,0,1 @ F,0,1,1,0,12.166887,0,1 @ F,0,1,1,0,12.166887,0,1 @ F,0,1,1,0,12.166887,0,1" unit="px" method="auto" mode="F" radius="0" chamfer_steps="1" flexible="false" use_knot_distance="true" apply_no_radius="true" apply_with_radius="true" only_selected="false" hide_knots="false" /><inkscape:path-effect effect="spiro" id="path-effect852" is_visible="true" lpeversion="1" /><inkscape:path-effect effect="fillet_chamfer" id="path-effect850" is_visible="true" lpeversion="1" satellites_param="F,0,0,1,0,0,0,1 @ F,0,0,1,0,0,0,1 @ F,0,0,1,0,0,0,1 @ F,0,0,1,0,0,0,1 @ F,0,0,1,0,0,0,1 @ F,0,0,1,0,0,0,1 @ F,0,0,1,0,0,0,1 @ F,0,0,1,0,0,0,1 @ F,0,0,1,0,0,0,1 @ F,0,1,1,0,31.843498,0,1 @ F,0,1,1,0,31.843498,0,1 @ F,0,0,1,0,0,0,1 @ F,0,1,1,0,31.843498,0,1 @ F,0,1,1,0,31.843498,0,1 @ F,0,0,1,0,0,0,1 @ F,0,0,1,0,0,0,1 @ F,0,0,1,0,0,0,1 @ F,0,0,1,0,0,0,1 @ F,0,0,1,0,0,0,1 | F,0,1,1,0,31.843498,0,1 @ F,0,1,1,0,31.843498,0,1 @ F,0,1,1,0,31.843498,0,1 @ F,0,1,1,0,31.843498,0,1 | F,0,1,1,0,31.843498,0,1 @ F,0,1,1,0,31.843498,0,1 @ F,0,1,1,0,31.843498,0,1 @ F,0,1,1,0,31.843498,0,1" unit="px" method="auto" mode="F" radius="0" chamfer_steps="1" flexible="false" use_knot_distance="true" apply_no_radius="true" apply_with_radius="true" only_selected="true" hide_knots="false" /><inkscape:path-effect effect="spiro" id="path-effect872" is_visible="true" lpeversion="1" /><inkscape:path-effect effect="spiro" id="path-effect868" is_visible="true" lpeversion="1" /><inkscape:path-effect effect="spiro" id="path-effect849" is_visible="true" lpeversion="1" /><inkscape:path-effect effect="spiro" id="path-effect851" is_visible="true" lpeversion="1" />
  <svg:style type="text/css" id="style2">
   
    .fil0 {fill:#EF7F1A;fill-rule:nonzero}
   
  </svg:style>
 <inkscape:path-effect effect="spiro" id="path-effect1214" is_visible="true" lpeversion="1" /><inkscape:path-effect effect="spiro" id="path-effect1195" is_visible="true" lpeversion="1" /><inkscape:path-effect effect="spiro" id="path-effect992" is_visible="true" lpeversion="1" /><inkscape:path-effect effect="spiro" id="path-effect1060" is_visible="true" lpeversion="1" /><inkscape:path-effect effect="spiro" id="path-effect1047" is_visible="true" lpeversion="1" /><inkscape:path-effect effect="spiro" id="path-effect1085" is_visible="true" lpeversion="1" /><inkscape:path-effect effect="spiro" id="path-effect1286" is_visible="true" lpeversion="1" /></svg:defs>
 
<svg:g id="path870"><svg:path style="color:#000000;clip-rule:nonzero;fill:#1a5fb4;fill-rule:nonzero;stroke-linecap:round;stroke-linejoin:round;-inkscape-stroke:none;shape-rendering:auto" d="M 39.023437,70 C 17.656996,70 -1.0418865,85.638619 -4.8222656,106.66797 l -12.2617184,68.20898 c -4.32572,24.06295 15.1529429,47.30712 39.601562,47.25782 l 134.634762,-0.27149 c 16.08246,13.13856 30.91127,27.40263 43.74414,42.9707 H 37.685547 c -21.366441,0 -40.0653241,15.63667 -43.8457032,36.66602 l -12.2617188,68.20898 c -4.32572,24.06295 15.1529433,47.30907 39.601562,47.25977 l 191.193363,-0.38672 c -7.8317,10.78015 -17.07004,20.92375 -27.58008,30.05274 -34.67846,30.12161 -79.99497,48.75114 -125.894533,51.93164 -21.886143,1.51654 -41.384016,24.75664 -37.765625,47.23632 l 11.083985,68.85743 c 3.340171,20.7512 13.391211,32.25699 32.333984,39.45117 46.616009,17.70405 90.053159,44.05801 127.246089,77.24804 24.96331,22.27662 47.20255,47.6662 66.01172,75.34571 11.87719,17.47842 27.81515,24.59519 49.23438,20.38476 l 113.88672,-22.38672 c 9.73123,-1.91289 24.27143,-8.94768 28.9082,-25.35742 4.63677,-16.40974 -4.1493,-30.12351 -11.49805,-36.82617 -43.48571,-39.66257 -89.18248,-76.89567 -136.8125,-111.47266 -21.47548,-15.59011 -43.55588,-30.62931 -66.19531,-44.96875 19.42021,-10.07042 38.18922,-21.87535 55.59961,-36.23046 29.57351,-24.38379 54.23539,-55.14001 70.5957,-90.55079 6.3743,-13.79673 11.39302,-28.23504 15.00196,-43.04687 l 41.85156,-0.084 c 20.98383,-0.0423 39.48231,-14.91509 44.0293,-35.4004 l 14.99414,-67.55273 c 5.3657,-24.17386 -14.05421,-48.37891 -38.81641,-48.37891 h -77.46875 c -6.5325,-15.09188 -14.04248,-29.5718 -22.1582,-43.33789 l 80.75781,-0.16211 c 20.98383,-0.0423 39.48231,-14.91704 44.0293,-35.40234 l 14.99414,-67.55273 C 484.10789,94.205045 464.68798,70 439.92578,70 Z m 12.921875,60 h 66.218748 l -8.04492,3.51953 a 30.003,30.003 0 0 0 -17.361328,28.47266 l -46.582031,0.0937 z m 220.351558,0 h 142.40625 l -6.96093,31.35742 -109.39063,0.2207 C 290.03276,150.75643 281.32487,140.238 272.29687,130 Z m -59.50781,24.09766 c 2.44466,2.56417 4.99214,5.0273 7.38672,7.63867 l -24.96484,0.0508 z m 54.86328,67.54296 c 4.03455,5.86476 8.12843,11.69014 11.92969,17.70704 5.30675,8.39988 10.28441,16.90928 14.88477,25.48632 h -20.84571 c -7.52357,-13.39621 -16.28484,-25.81589 -25.54492,-37.14453 -1.68766,-2.06466 -3.51049,-3.98083 -5.24219,-5.99804 z M 50.607422,324.83398 H 233.72461 c 1.24391,4.81904 2.23296,9.63425 2.69141,14.41993 0.54126,5.65013 0.45978,11.4469 -0.0762,17.28125 l -191.501949,0.38476 z m 244.259768,0 h 23.38672 c 2.00024,8.2896 3.50174,16.5893 4.21289,24.88086 0.18914,2.20534 0.24139,4.42861 0.33398,6.64649 l -26.22656,0.0527 c 0.41233,-7.55906 0.3043,-15.19853 -0.43164,-22.88086 -0.28309,-2.95506 -0.83013,-5.80681 -1.27539,-8.69922 z m 84.76758,0 h 33.73046 l -6.96093,31.35743 -23.5625,0.0488 c -0.12135,-3.88236 -0.26246,-7.76691 -0.59571,-11.65234 -0.57347,-6.68633 -1.4705,-13.26454 -2.61132,-19.75391 z m -65.5879,91.54297 c -2.02421,6.03077 -4.31665,11.97754 -6.98632,17.75586 -12.25244,26.51956 -31.23622,50.40447 -54.29883,69.41992 -23.29185,19.20447 -51.13133,33.79236 -81.12891,45.40235 -6.83337,-3.59151 -13.7221,-7.09953 -20.68164,-10.49805 -0.40443,-0.19749 -0.81983,-0.37159 -1.22461,-0.56836 26.98198,-11.21724 52.21293,-26.67123 74.41406,-45.95508 21.56849,-18.73432 40.85896,-41.46081 54.29883,-68.46679 1.14517,-2.30109 2.17788,-4.66972 3.23047,-7.02539 z M 90.574219,599.66797 c 0.04891,0.0561 0.05788,0.23633 0.09375,0.30859 -0.01576,-0.006 -0.03111,-0.0133 -0.04687,-0.0195 z M 166.34766,614.5 c 34.28288,19.48814 67.48911,41.54993 99.93164,65.10156 32.88914,23.87585 64.78037,49.121 95.65625,75.55078 l -59.01953,11.60157 c -20.61609,-29.29184 -44.43559,-56.30312 -71.16993,-80.16016 -28.00863,-24.99419 -59.04008,-46.47194 -92.14257,-64.08203 4.73044,-1.32851 9.48406,-2.57195 14.18554,-4 4.18018,-1.26971 8.37074,-2.64631 12.5586,-4.01172 z m 138.23046,154.54687 c 0.76294,0.89323 1.59981,2.08772 2.85547,3.93555 -0.91122,-1.34095 -1.93043,-2.60421 -2.85547,-3.93555 z" id="path2773" /></svg:g></svg:svg>
